svg/evernote.svg

<svg xmlns="http://www.w3.org/2000/svg" viewBox="0 0 24 24"><path d="M15.09 11.63s.19-1.28.91-1.28c.76 0 1.78 1.71 1.78 1.71s-2.32-.43-2.69-.43M19 4.69c-.36-.6-2.17-1.28-3.11-1.28H13.5S12.7 2 10.88 2c-1.83 0-1.71.81-1.71 1.5v2.82l-.83.87H4.5s-1.06.72-1.06 2.25c0 1.56.48 6.91 3.69 7.41 3.8.58 4.45-1.18 4.45-1.39 0-.9.02-2.25.02-2.25s1.11 2.12 2.79 2.12 2.65.97 2.65 1.96v1.84S17 20.28 16 20.28h-2.11s-.69-.54-.69-1.28c0-.75.33-.95.73-.95.39 0 .72.04.72.04v-1.56s-3.18-.03-3.18 2.41c0 2.43 1.66 3.06 2.99 3.06h2.17s3.93-.5 3.93-8.25S19.33 5.28 19 4.69M7.5 6.31H4.26l4.06-4.09V5.5z"/></svg>

<?xml version="1.0" encoding="UTF-8"?><!DOCTYPE svg PUBLIC "-//W3C//DTD SVG 1.1//EN" "http://www.w3.org/Graphics/SVG/1.1/DTD/svg11.dtd"><svg xmlns="http://www.w3.org/2000/svg" xmlns:xlink="http://www.w3.org/1999/xlink" version="1.1" id="mdi-evernote" width="24" height="24" viewBox="0 0 24 24"><path d="M15.09,11.63C15.09,11.63 15.28,10.35 16,10.35C16.76,10.35 17.78,12.06 17.78,12.06C17.78,12.06 15.46,11.63 15.09,11.63M19,4.69C18.64,4.09 16.83,3.41 15.89,3.41C14.96,3.41 13.5,3.41 13.5,3.41C13.5,3.41 12.7,2 10.88,2C9.05,2 9.17,2.81 9.17,3.5V6.32L8.34,7.19H4.5C4.5,7.19 3.44,7.91 3.44,9.44C3.44,11 3.92,16.35 7.13,16.85C10.93,17.43 11.58,15.67 11.58,15.46C11.58,14.56 11.6,13.21 11.6,13.21C11.6,13.21 12.71,15.33 14.39,15.33C16.07,15.33 17.04,16.3 17.04,17.29C17.04,18.28 17.04,19.13 17.04,19.13C17.04,19.13 17,20.28 16,20.28C15,20.28 13.89,20.28 13.89,20.28C13.89,20.28 13.2,19.74 13.2,19C13.2,18.25 13.53,18.05 13.93,18.05C14.32,18.05 14.65,18.09 14.65,18.09V16.53C14.65,16.53 11.47,16.5 11.47,18.94C11.47,21.37 13.13,22 14.46,22C15.8,22 16.63,22 16.63,22C16.63,22 20.56,21.5 20.56,13.75C20.56,6 19.33,5.28 19,4.69M7.5,6.31H4.26L8.32,2.22V5.5L7.5,6.31Z" /></svg>
